static/assets/images/networks/fraxtal-mono.svg

<svg width="257" height="256" viewBox="0 0 257 256" fill="none" xmlns="http://www.w3.org/2000/svg">
<path d="M221.712 67.6844C219.319 59.9756 215.079 52.9647 209.359 47.2583C203.64 41.5518 196.613 37.3217 188.886 34.9339V0H163.993V33.8422C155.119 35.776 146.996 40.231 140.605 46.6695L123.918 63.1812C121.56 65.5337 120.236 68.7243 120.236 72.0512C120.236 75.378 121.56 78.5686 123.918 80.9211C126.276 83.2735 129.474 84.5951 132.808 84.5951C136.143 84.5951 139.341 83.2735 141.699 80.9211L158.249 64.2729C162.625 59.9062 168.37 57.5863 174.662 57.7228C181.09 57.7228 187.108 60.452 191.758 64.9552C201.059 74.371 201.333 89.2452 192.442 98.2516L157.428 133.185C155.185 135.34 152.538 137.033 149.639 138.165C146.739 139.297 143.644 139.848 140.531 139.784C137.418 139.721 134.348 139.045 131.497 137.796C128.646 136.546 126.071 134.748 123.918 132.503C122.751 131.347 121.366 130.432 119.844 129.81C118.322 129.188 116.692 128.871 115.048 128.877C113.403 128.884 111.776 129.213 110.258 129.847C108.741 130.481 107.364 131.407 106.206 132.571C105.047 133.736 104.13 135.117 103.506 136.636C102.883 138.154 102.565 139.78 102.572 141.421C102.578 143.062 102.908 144.686 103.543 146.2C104.179 147.713 105.107 149.087 106.274 150.243C115.985 159.795 128.705 164.708 141.288 164.708C153.598 164.708 165.908 160.068 175.072 150.789L210.086 115.991C216.651 109.305 221.028 101.254 222.806 92.6567H257V67.6844H221.712Z" fill="black"/>
<path d="M115.301 175.215L98.6147 191.864C94.0912 196.174 88.0409 198.522 81.787 198.394C75.5331 198.266 69.5844 195.673 65.2416 191.181C62.9827 189.043 61.1692 186.48 59.905 183.641C58.6408 180.801 57.9508 177.741 57.8745 174.635C57.7983 171.529 58.3373 168.438 59.4607 165.541C60.5841 162.643 62.2697 159.995 64.421 157.748L99.4353 122.951C101.678 120.796 104.325 119.104 107.225 117.971C110.124 116.839 113.219 116.289 116.332 116.352C119.445 116.416 122.515 117.091 125.366 118.341C128.217 119.59 130.792 121.389 132.945 123.633C135.303 125.968 138.494 127.272 141.816 127.259C145.137 127.246 148.318 125.917 150.658 123.565C152.997 121.213 154.305 118.029 154.292 114.715C154.279 111.401 152.947 108.228 150.589 105.893C141.533 96.7293 129.202 91.5248 116.303 91.4224C103.405 91.3201 90.9926 96.3283 81.7914 105.348L46.777 140.009C40.2118 146.695 35.9718 154.746 34.0569 163.343H0V188.316H35.1512C37.5445 196.024 41.7843 203.035 47.5039 208.742C53.2235 214.448 60.2506 218.678 67.9771 221.066V256H92.8702V222.021C101.728 220.126 109.85 215.719 116.259 209.33L132.945 192.682C135.285 190.33 136.592 187.146 136.579 183.832C136.567 180.518 135.235 177.345 132.877 175.011C130.519 172.676 127.328 171.372 124.006 171.385C120.685 171.398 117.504 172.726 115.164 175.079L115.301 175.215Z" fill="black"/>
</svg>

<svg xmlns="http://www.w3.org/2000/svg" fill="none" viewBox="0 0 257 256"><path fill="#000" d="M221.712 67.684a49.64 49.64 0 0 0-12.353-20.426 49.8 49.8 0 0 0-20.473-12.324V0h-24.893v33.842a47.1 47.1 0 0 0-23.388 12.828l-16.687 16.51a12.53 12.53 0 0 0 0 17.74 12.6 12.6 0 0 0 8.89 3.674 12.6 12.6 0 0 0 8.891-3.674l16.55-16.648c4.376-4.367 10.121-6.687 16.413-6.55 6.428 0 12.446 2.729 17.096 7.232 9.301 9.416 9.575 24.29.684 33.297l-35.014 34.933a23.67 23.67 0 0 1-16.897 6.599 23.67 23.67 0 0 1-16.613-7.281 12.56 12.56 0 0 0-13.66-2.656 12.5 12.5 0 0 0-4.052 2.724 12.46 12.46 0 0 0-3.634 8.85 12.47 12.47 0 0 0 3.702 8.822c9.711 9.552 22.431 14.465 35.014 14.465 12.31 0 24.62-4.64 33.784-13.919l35.014-34.798c6.565-6.686 10.942-14.737 12.72-23.334H257V67.684z"/><path fill="#000" d="m115.301 175.215-16.686 16.649a23.7 23.7 0 0 1-16.828 6.53 23.7 23.7 0 0 1-16.545-7.213 23.567 23.567 0 0 1-.82-33.433l35.013-34.797a23.68 23.68 0 0 1 16.897-6.599c3.113.064 6.183.739 9.034 1.989a23.7 23.7 0 0 1 7.579 5.292 12.543 12.543 0 0 0 17.713-.068 12.48 12.48 0 0 0 3.634-8.85 12.48 12.48 0 0 0-3.703-8.822 48.75 48.75 0 0 0-34.286-14.47 48.75 48.75 0 0 0-34.512 13.925l-35.014 34.661c-6.565 6.686-10.805 14.737-12.72 23.334H0v24.973h35.151a49.66 49.66 0 0 0 12.353 20.426 49.8 49.8 0 0 0 20.473 12.324V256H92.87v-33.979a47.1 47.1 0 0 0 23.389-12.691l16.686-16.648a12.48 12.48 0 0 0-.068-17.671 12.54 12.54 0 0 0-8.871-3.626 12.54 12.54 0 0 0-8.842 3.694z"/></svg>
